themes/Arch Colors/mainmenu-arch.svg

<?xml version="1.0" encoding="UTF-8" standalone="no"?>
<!-- Created with Inkscape (http://www.inkscape.org/) -->
<svg
   xmlns:dc="http://purl.org/dc/elements/1.1/"
   xmlns:cc="http://web.resource.org/cc/"
   xmlns:rdf="http://www.w3.org/1999/02/22-rdf-syntax-ns#"
   xmlns:svg="http://www.w3.org/2000/svg"
   xmlns="http://www.w3.org/2000/svg"
   xmlns:xlink="http://www.w3.org/1999/xlink"
   xmlns:sodipodi="http://sodipodi.sourceforge.net/DTD/sodipodi-0.dtd"
   xmlns:inkscape="http://www.inkscape.org/namespaces/inkscape"
   width="32"
   height="32"
   id="svg2424"
   sodipodi:version="0.32"
   inkscape:version="0.45.1"
   version="1.0"
   sodipodi:docbase="/home/thayer/tmp/archlinux-logo-contest/archer/masters"
   sodipodi:docname="archlinux-icon-crystal-32.svg"
   inkscape:output_extension="org.inkscape.output.svg.inkscape"
   inkscape:export-filename="/home/thayer/archlinux-logo-contest/archer-full-detail.png"
   inkscape:export-xdpi="90"
   inkscape:export-ydpi="90">
  <defs
     id="defs2426">
    <linearGradient
       inkscape:collect="always"
       xlink:href="#path1082_2_"
       id="linearGradient2190"
       gradientUnits="userSpaceOnUse"
       gradientTransform="matrix(-0.3937741,0,0,0.393752,978.34967,416.9815)"
       x1="541.33502"
       y1="104.50665"
       x2="606.91248"
       y2="303.14029" />
    <linearGradient
       gradientUnits="userSpaceOnUse"
       id="path1082_2_"
       y2="129.3468"
       x2="112.49853"
       y1="6.1372099"
       x1="112.49854"
       gradientTransform="translate(287,-83)">
      <stop
         id="stop193"
         offset="0"
         style="stop-color:#ffffff;stop-opacity:0" />
      <stop
         id="stop195"
         offset="1"
         style="stop-color:#ffffff;stop-opacity:0.27450982;" />
      <midPointStop
         id="midPointStop197"
         style="stop-color:#FFFFFF"
         offset="0" />
      <midPointStop
         id="midPointStop199"
         style="stop-color:#FFFFFF"
         offset="0.5" />
      <midPointStop
         id="midPointStop201"
         style="stop-color:#000000"
         offset="1" />
    </linearGradient>
    <linearGradient
       id="linearGradient3388">
      <stop
         style="stop-color:#000000;stop-opacity:0;"
         offset="0"
         id="stop3390" />
      <stop
         style="stop-color:#000000;stop-opacity:0.37113401;"
         offset="1"
         id="stop3392" />
    </linearGradient>
    <linearGradient
       inkscape:collect="always"
       id="linearGradient4346">
      <stop
         style="stop-color:#00bdec;stop-opacity:1"
         offset="0"
         id="stop4348" />
      <stop
         style="stop-color:#40bfde;stop-opacity:1"
         offset="1"
         id="stop4350" />
    </linearGradient>
    <linearGradient
       inkscape:collect="always"
       xlink:href="#linearGradient4346"
       id="linearGradient4352"
       x1="400.6142"
       y1="634.15063"
       x2="616.48553"
       y2="666.97791"
       gradientUnits="userSpaceOnUse" />
    <linearGradient
       inkscape:collect="always"
       id="linearGradient5323">
      <stop
         style="stop-color:#6e6e6e;stop-opacity:1"
         offset="0"
         id="stop5325" />
      <stop
         style="stop-color:#4d4d4d;stop-opacity:1"
         offset="1"
         id="stop5327" />
    </linearGradient>
    <linearGradient
       inkscape:collect="always"
       xlink:href="#linearGradient5323"
       id="linearGradient5329"
       x1="291.83591"
       y1="238.08237"
       x2="650.81366"
       y2="348.96875"
       gradientUnits="userSpaceOnUse" />
    <linearGradient
       inkscape:collect="always"
       xlink:href="#path1082_2_"
       id="linearGradient2216"
       gradientUnits="userSpaceOnUse"
       gradientTransform="matrix(-0.3937741,0,0,0.393752,978.34967,416.9815)"
       x1="541.33502"
       y1="104.50665"
       x2="606.91248"
       y2="303.14029" />
  </defs>
  <sodipodi:namedview
     id="base"
     pagecolor="#ffffff"
     bordercolor="#666666"
     borderopacity="1.0"
     gridtolerance="10000"
     guidetolerance="10"
     objecttolerance="10"
     inkscape:pageopacity="0.0"
     inkscape:pageshadow="2"
     inkscape:zoom="1"
     inkscape:cx="16"
     inkscape:cy="16"
     inkscape:document-units="px"
     inkscape:current-layer="g2210"
     inkscape:window-width="636"
     inkscape:window-height="511"
     inkscape:window-x="1038"
     inkscape:window-y="16" />
  <metadata
     id="metadata2429">
    <rdf:RDF>
      <cc:Work
         rdf:about="">
        <dc:format>image/svg+xml</dc:format>
        <dc:type
           rdf:resource="http://purl.org/dc/dcmitype/StillImage" />
      </cc:Work>
    </rdf:RDF>
  </metadata>
  <g
     inkscape:label="Layer 1"
     inkscape:groupmode="layer"
     id="layer1"
     transform="translate(-309.51781,-259.60123)">
    <g
       id="g2424"
       transform="matrix(1.3473684,0,0,1.3473684,-632.88236,-513.34366)">
      <g
         id="g2210"
         transform="matrix(0.125,0,0,0.125,615.71887,519.21715)">
        <path
           style="fill:#1793d1;fill-opacity:1;fill-rule:evenodd;stroke:none;stroke-width:1;stroke-linecap:round;stroke-linejoin:round;stroke-miterlimit:10;stroke-dasharray:none;stroke-opacity:1"
           d="M 764.75015,435.62318 C 756.29306,456.35771 752.13752,468.47084 742.72166,488.58901 C 748.49477,494.7085 754.61058,503.27765 766.11856,511.3263 C 756.19466,510.64216 744.33307,503.09582 738.0262,497.79178 C 725.9757,522.93702 708.06309,556.78261 669.75015,625.62318 C 699.85528,608.24296 723.19329,597.52272 744.94302,593.4308 C 744.0125,589.41975 743.51542,585.06076 743.55142,580.53529 L 743.57461,579.58436 C 744.05243,560.29195 754.09092,545.45692 765.9794,546.46424 C 777.86787,547.47156 787.12249,563.93331 786.64468,583.22572 C 786.55468,586.85963 786.1322,590.35133 785.41543,593.59315 C 806.9311,597.8037 830.04901,608.47618 859.75015,625.62318 C 853.89286,614.83948 848.64665,607.08273 843.65396,597.82475 C 835.78967,591.72939 829.54943,586.24762 810.85855,573.25257 C 822.35934,576.24095 829.13312,577.24831 835.55168,581.10212 C 784.78965,486.59209 782.15758,476.47346 764.75015,435.62318 z "
           id="path2518"
           sodipodi:nodetypes="ccccccccsscccccc" />
        <path
           style="fill:#ffffff;fill-opacity:0.16568047;fill-rule:evenodd;stroke:none;stroke-width:36.09999847;stroke-linecap:butt;stroke-linejoin:round;stroke-miterlimit:10;stroke-opacity:1"
           d="M 818.22607,548.55277 C 777.04464,492.65769 767.49922,447.60796 765.0814,436.85262 C 787.04877,487.52122 786.89873,488.14257 818.22607,548.55277 z "
           id="path2522"
           sodipodi:nodetypes="ccc" />
        <path
           style="fill:url(#linearGradient2190);fill-opacity:1;fill-rule:evenodd;stroke:none;stroke-width:0.71416688;stroke-linecap:round;stroke-linejoin:round;stroke-miterlimit:10;stroke-dasharray:none;stroke-opacity:1"
           d="M 765.12124,436.55089 C 764.08134,439.10743 762.92886,441.60974 761.96694,443.97277 C 760.88579,446.62862 759.83447,449.09447 758.81264,451.58019 C 757.79089,454.06594 756.84782,456.60772 755.84389,459.00206 C 754.8399,461.39652 753.90279,463.67099 752.87514,466.05285 C 751.84756,468.43462 750.81358,470.84129 749.72084,473.28917 C 749.49915,473.80943 749.20549,474.24651 748.97866,474.77355 C 748.08785,476.75518 747.15745,478.81677 746.19545,480.8966 C 745.0662,483.42371 743.97624,485.7132 742.67006,488.50402 C 748.44317,494.62351 754.54099,503.27763 766.04897,511.32628 C 756.12507,510.64214 744.33826,503.0854 738.03139,497.78136 C 736.49447,500.90008 734.97516,504.30127 733.20717,507.80089 C 732.14161,509.91015 730.84337,512.20996 729.68178,514.48058 C 728.92541,515.97954 728.44377,517.17458 727.64077,518.74816 C 727.60017,518.82696 727.49593,518.85471 727.45522,518.93371 C 726.43493,520.91336 723.18032,527.06417 719.8478,533.40636 C 717.3486,538.17539 714.995,542.75074 712.05483,548.25011 C 736.11521,534.67716 762.15262,515.27934 809.28139,532.10753 C 806.91431,527.62434 804.83098,523.44317 802.78725,519.49035 C 800.74355,515.53741 798.7984,511.85803 797.0353,508.35753 C 795.27234,504.8571 793.55041,501.46406 792.02553,498.338 C 790.50067,495.21201 789.08721,492.26151 787.75795,489.43175 C 786.42863,486.60205 785.22328,484.06467 784.04702,481.45324 C 782.87068,478.84184 781.77313,476.31688 780.70717,473.84582 C 779.6411,471.37462 778.73656,468.83267 777.73842,466.42394 C 777.17555,465.06569 776.62037,463.69979 776.0685,462.34191 C 775.65849,461.38151 775.17963,460.1543 774.76967,459.18761 C 771.81226,452.21398 768.75876,445.101 765.12124,436.55089 z "
           id="path2520" />
      </g>
    </g>
  </g>
</svg>

<?xml version="1.0" encoding="UTF-8"?>
<svg width="32" height="32" version="1.0" xmlns="http://www.w3.org/2000/svg" xmlns:cc="http://creativecommons.org/ns#" xmlns:dc="http://purl.org/dc/elements/1.1/" xmlns:rdf="http://www.w3.org/1999/02/22-rdf-syntax-ns#" xmlns:xlink="http://www.w3.org/1999/xlink">
 <defs>
  <linearGradient id="linearGradient2190" x1="541.34" x2="606.91" y1="104.51" y2="303.14" gradientTransform="matrix(-.39377 0 0 .39375 978.35 416.98)" gradientUnits="userSpaceOnUse">
   <stop stop-color="#fff" stop-opacity="0" offset="0"/>
   <stop stop-color="#fff" stop-opacity=".27451" offset="1"/>
  </linearGradient>
 </defs>
 <g transform="translate(-309.52 -259.6)">
  <g transform="matrix(1.3474 0 0 1.3474 -632.88 -513.34)">
   <g transform="matrix(.125 0 0 .125 615.72 519.22)" fill-rule="evenodd">
    <path d="m764.75 435.62c-8.4571 20.735-12.613 32.848-22.028 52.966 5.7731 6.1195 11.889 14.689 23.397 22.737-9.9239-0.68414-21.785-8.2305-28.092-13.535-12.05 25.145-29.963 58.991-68.276 127.83 30.105-17.38 53.443-28.1 75.193-32.192-0.93052-4.011-1.4276-8.37-1.3916-12.896l0.0232-0.95093c0.47782-19.292 10.516-34.127 22.405-33.12 11.888 1.0073 21.143 17.469 20.665 36.761-0.09 3.6339-0.51248 7.1256-1.2292 10.367 21.516 4.2106 44.634 14.883 74.335 32.03-5.8573-10.784-11.104-18.54-16.096-27.798-7.8643-6.0954-14.105-11.577-32.795-24.572 11.501 2.9884 18.275 3.9957 24.693 7.8496-50.762-94.51-53.394-104.63-70.802-145.48z" fill="#1793d1"/>
    <path d="m818.23 548.55c-41.181-55.895-50.727-100.94-53.145-111.7 21.967 50.669 21.817 51.29 53.145 111.7z" fill="#fff" fill-opacity=".16568"/>
    <path d="m765.12 436.55c-1.0399 2.5565-2.1924 5.0588-3.1543 7.4219-1.0812 2.6558-2.1325 5.1217-3.1543 7.6074-1.0218 2.4858-1.9648 5.0275-2.9688 7.4219-1.004 2.3945-1.9411 4.6689-2.9688 7.0508-1.0276 2.3818-2.0616 4.7884-3.1543 7.2363-0.22169 0.52026-0.51535 0.95734-0.74218 1.4844-0.89081 1.9816-1.8212 4.0432-2.7832 6.123-1.1292 2.5271-2.2192 4.8166-3.5254 7.6074 5.7731 6.1195 11.871 14.774 23.379 22.822-9.9239-0.68414-21.711-8.2409-28.018-13.545-1.5369 3.1187-3.0562 6.5199-4.8242 10.02-1.0656 2.1093-2.3638 4.4091-3.5254 6.6797-0.75637 1.499-1.238 2.694-2.041 4.2676-0.0406 0.0788-0.14484 0.10655-0.18555 0.18555-1.0203 1.9796-4.2749 8.1305-7.6074 14.473-2.4992 4.769-4.8528 9.3444-7.793 14.844 24.06-13.573 50.098-32.971 97.227-16.143-2.3671-4.4832-4.4504-8.6644-6.4941-12.617-2.0437-3.9529-3.9888-7.6323-5.752-11.133-1.763-3.5004-3.4849-6.8935-5.0098-10.02-1.5249-3.126-2.9383-6.0765-4.2676-8.9062-1.3293-2.8297-2.5347-5.3671-3.7109-7.9785-1.1763-2.6114-2.2739-5.1364-3.3398-7.6074-1.0661-2.4712-1.9706-5.0132-2.9688-7.4219-0.56287-1.3582-1.118-2.7242-1.6699-4.082-0.41001-0.9604-0.88887-2.1876-1.2988-3.1543-2.9574-6.9736-6.0109-14.087-9.6484-22.637z" fill="url(#linearGradient2190)"/>
   </g>
  </g>
 </g>
</svg>
